public/images/stacks-logo.svg

<svg width="414" height="410" viewBox="0 0 414 410" fill="none" xmlns="http://www.w3.org/2000/svg">
  <path fill-rule="evenodd" clip-rule="evenodd" d="M258.999 518C402.041 518 518 402.042 518 259S402.041 0 258.999 0C115.958 0 0 115.958 0 259s115.958 259 258.999 259Zm129.5-306.298h-77.418l54.367-82.202h-41.101l-65.456 99.164-65.24-99.164h-41.1l54.366 82.202h-77.418v31.749h259v-31.749Zm-78.939 93.509 55.018 83.289h-41.101l-64.586-97.859-64.587 97.859h-40.883l55.018-83.071h-78.94v-31.533h259v31.315H309.56Z" fill="#fff" fill-opacity=".04"/>
</svg>

<svg width="414" height="410" viewBox="0 0 414 410" fill="none" xmlns="http://www.w3.org/2000/svg">
<path fill-rule="evenodd" clip-rule="evenodd" d="M258.999 518C402.041 518 518 402.042 518 259C518 115.958 402.041 0 258.999 0C115.958 0 0 115.958 0 259C0 402.042 115.958 518 258.999 518ZM388.499 211.702H311.081L365.448 129.5H324.347L258.891 228.664L193.651 129.5H152.551L206.917 211.702H129.499V243.451H388.499V211.702ZM309.56 305.211L364.578 388.5H323.477L258.891 290.641L194.304 388.5H153.421L208.439 305.429H129.499V273.896H388.499V305.211H309.56Z" fill="white" fill-opacity="0.08"/>
</svg>
